build/img/map.svg

<svg width="18" height="18" viewBox="0 0 18 18" fill="none" xmlns="http://www.w3.org/2000/svg">
<path d="M12 18L6 15.9L1.35 17.7C1.01667 17.8333 0.708333 17.7957 0.425 17.587C0.141667 17.379 0 17.1 0 16.75V2.75C0 2.53333 0.0626666 2.34167 0.188 2.175C0.312667 2.00833 0.483333 1.88333 0.7 1.8L6 0L12 2.1L16.65 0.3C16.9833 0.166667 17.2917 0.204 17.575 0.412C17.8583 0.620667 18 0.9 18 1.25V15.25C18 15.4667 17.9373 15.6583 17.812 15.825C17.6873 15.9917 17.5167 16.1167 17.3 16.2L12 18ZM11 15.55V3.85L7 2.45V14.15L11 15.55ZM13 15.55L16 14.55V2.7L13 3.85V15.55ZM2 15.3L5 14.15V2.45L2 3.45V15.3ZM13 3.85V15.55V3.85ZM5 2.45V14.15V2.45Z" fill="black"/>
</svg>

<?xml version="1.0" encoding="utf-8"?>
<!-- Generator: Adobe Illustrator 26.0.1, SVG Export Plug-In . SVG Version: 6.00 Build 0)  -->
<svg version="1.1" id="レイヤー_1" xmlns="http://www.w3.org/2000/svg" xmlns:xlink="http://www.w3.org/1999/xlink" x="0px"
	 y="0px" viewBox="0 0 18 18" style="enable-background:new 0 0 18 18;" xml:space="preserve">
<style type="text/css">
	.st0{fill:#FFFFFF;}
</style>
<path class="st0" d="M12,18l-6-2.1l-4.7,1.8c-0.3,0.1-0.6,0.1-0.9-0.1C0.1,17.4,0,17.1,0,16.7v-14c0-0.2,0.1-0.4,0.2-0.6
	C0.3,2,0.5,1.9,0.7,1.8L6,0l6,2.1l4.6-1.8c0.3-0.1,0.6-0.1,0.9,0.1C17.9,0.6,18,0.9,18,1.2v14c0,0.2-0.1,0.4-0.2,0.6
	c-0.1,0.2-0.3,0.3-0.5,0.4L12,18z M11,15.5V3.8L7,2.4v11.7L11,15.5z M13,15.5l3-1V2.7l-3,1.1V15.5z M2,15.3l3-1.2V2.4l-3,1V15.3z
	 M13,3.8v11.7V3.8z M5,2.4v11.7V2.4z"/>
</svg>
